img/pen.svg

<svg width="43" height="44" viewBox="0 0 43 44" fill="none" xmlns="http://www.w3.org/2000/svg">
<path d="M28.6292 2.92344L28.4547 3.89201C31.4466 5.00611 34.1541 6.83099 36.3396 9.24645C39.6824 12.9421 41.5234 17.7233 41.5234 22.7108C41.5234 22.7908 41.4589 22.8553 41.3789 22.8553C41.299 22.8553 41.2343 22.7906 41.2343 22.7108C41.2343 12.8154 34.0045 4.52317 24.2983 3.1286L23.7272 3.04654V3.62352V4.9146C23.7272 4.99463 23.6627 5.05913 23.5827 5.05913H19.3116C19.2318 5.05913 19.1671 4.99446 19.1671 4.9146V3.62352V3.04654L18.596 3.1286C8.88985 4.52317 1.65967 12.8154 1.65967 22.7108C1.65967 22.7906 1.595 22.8553 1.51514 22.8553C1.43527 22.8553 1.3706 22.7906 1.3706 22.7108C1.3706 17.7233 3.21157 12.9421 6.55477 9.24648C8.7399 6.83104 11.4474 5.00646 14.4393 3.89235L14.2648 2.92378H6.32732H5.96545L5.85237 3.26752C5.64604 3.89466 5.05495 4.34712 4.3625 4.34712C3.49818 4.34712 2.79428 3.64335 2.79428 2.77925C2.79428 1.91503 3.49829 1.21103 4.3625 1.21103C5.05491 1.21103 5.646 1.66345 5.85235 2.29091L5.96541 2.63471H6.32732H18.6671H19.1671V2.13471V0.643557C19.1671 0.563698 19.2318 0.499022 19.3116 0.499022H23.5827C23.6627 0.499022 23.7272 0.563526 23.7272 0.643557V2.13438V2.63438H24.2272H36.567H36.9289L37.042 2.29064C37.2483 1.66345 37.8394 1.21103 38.5315 1.21103C39.3958 1.21103 40.0997 1.9148 40.0997 2.77891C40.0997 3.64317 39.396 4.34712 38.5315 4.34712C37.8391 4.34712 37.248 3.8947 37.0417 3.26724L36.9286 2.92344H36.5667H28.6292ZM19.4562 4.27006V4.77006H19.9562H22.9382H23.4382V4.27006V2.89103V2.88868V2.78059V2.77891V2.77723V1.28809V0.788091H22.9382H19.9562H19.4562V1.28809V2.88969V2.89002V4.27006ZM39.8106 2.77891C39.8106 2.07327 39.2372 1.5001 38.5315 1.5001C37.8258 1.5001 37.2524 2.07328 37.2524 2.77891C37.2524 3.48474 37.8257 4.05806 38.5315 4.05806C39.2373 4.05806 39.8106 3.48474 39.8106 2.77891ZM3.08335 2.77925C3.08335 3.48488 3.65681 4.05806 4.3625 4.05806C5.06819 4.05806 5.64165 3.48488 5.64165 2.77925C5.64165 2.07341 5.06833 1.5001 4.3625 1.5001C3.65667 1.5001 3.08335 2.07341 3.08335 2.77925Z" fill="white" stroke="white" stroke-width="0.999998"/>
<mask id="path-2-inside-1_1_11541" fill="white">
<path d="M23.4336 7.44785C23.3198 7.24374 23.1047 7.11719 22.871 7.11719H20.0233C19.79 7.11719 19.5745 7.24374 19.4607 7.44785L10.9183 22.7525C10.8649 22.8485 10.8367 22.9566 10.8367 23.0667V23.7787C10.8367 23.9006 10.8713 24.0197 10.9364 24.1228L14.5831 29.8964H12.1929C11.8371 29.8964 11.5484 30.1848 11.5484 30.5409C11.5484 30.8968 11.8371 31.1855 12.1929 31.1855H12.2604V33.3883C12.2604 33.7445 12.5487 34.0328 12.9049 34.0328H13.6837V36.236C13.6837 36.5918 13.9724 36.8805 14.3283 36.8805H15.1077V39.081V39.0834V39.086V43.3544C15.1077 43.7106 15.3964 43.9989 15.7523 43.9989H27.142C27.4979 43.9989 27.7866 43.7106 27.7866 43.3544V36.8805H28.5657C28.9216 36.8805 29.2103 36.5918 29.2103 36.236V34.0328H29.9894C30.3452 34.0328 30.6339 33.7445 30.6339 33.3883V31.1855H30.7014C31.0573 31.1855 31.346 30.8968 31.346 30.5409C31.346 30.1848 31.0573 29.8964 30.7014 29.8964H29.9911C29.9904 29.8964 29.9901 29.8964 29.9894 29.8964C29.9887 29.8964 29.9884 29.8964 29.9877 29.8964H28.3113L31.9579 24.1228C32.023 24.0197 32.0576 23.9006 32.0576 23.7787V23.0667C32.0576 22.9566 32.0294 22.8485 31.9757 22.7525L23.4336 7.44785ZM21.4473 21.2197C21.877 21.2197 22.2265 21.5692 22.2265 21.9989C22.2265 22.4285 21.877 22.778 21.4473 22.778C21.0176 22.778 20.6682 22.4285 20.6682 21.9989C20.6682 21.5692 21.0176 21.2197 21.4473 21.2197ZM27.9212 35.5911H20.8495C20.4936 35.5911 20.2049 35.8798 20.2049 36.2357C20.2049 36.5918 20.4936 36.8802 20.8495 36.8802H26.4975V38.4385H25.718C25.3622 38.4385 25.0735 38.7269 25.0735 39.083C25.0735 39.4392 25.3622 39.7276 25.718 39.7276H26.4972V42.7099H16.3968V39.7279H17.176C17.5318 39.7279 17.8205 39.4395 17.8205 39.0834C17.8205 38.7272 17.5318 38.4388 17.176 38.4388H16.3968V36.8802H18.0954C18.4516 36.8802 18.74 36.5918 18.74 36.2357C18.74 35.8798 18.4516 35.5911 18.0954 35.5911H14.9728V34.0328H27.9212V35.5911ZM29.3449 32.7438H13.5494V31.1855H27.14H27.1414H27.1427H29.3449V32.7438ZM30.7686 23.5921L29.4842 25.6254H27.8537C27.4979 25.6254 27.2092 25.9137 27.2092 26.2699C27.2092 26.6261 27.4979 26.9144 27.8537 26.9144H28.6701L26.7865 29.8964H22.0915V28.4053C22.0915 28.0494 21.8032 27.7607 21.447 27.7607C21.0912 27.7607 20.8025 28.0494 20.8025 28.4053V29.8964H16.1074L14.2242 26.9144H15.0403C15.3964 26.9144 15.6848 26.6261 15.6848 26.2699C15.6848 25.9137 15.3964 25.6254 15.0403 25.6254H13.4098L12.1258 23.5921V23.2342L20.402 8.40625H20.8025V20.034C19.977 20.3056 19.3788 21.0834 19.3788 21.9985C19.3788 23.1392 20.3066 24.0671 21.447 24.0671C22.5877 24.0671 23.5155 23.1392 23.5155 21.9985C23.5155 21.0834 22.9173 20.3053 22.0919 20.034V8.40625H22.4923L30.7686 23.2342V23.5921Z"/>
</mask>
<path d="M23.4336 7.44785C23.3198 7.24374 23.1047 7.11719 22.871 7.11719H20.0233C19.79 7.11719 19.5745 7.24374 19.4607 7.44785L10.9183 22.7525C10.8649 22.8485 10.8367 22.9566 10.8367 23.0667V23.7787C10.8367 23.9006 10.8713 24.0197 10.9364 24.1228L14.5831 29.8964H12.1929C11.8371 29.8964 11.5484 30.1848 11.5484 30.5409C11.5484 30.8968 11.8371 31.1855 12.1929 31.1855H12.2604V33.3883C12.2604 33.7445 12.5487 34.0328 12.9049 34.0328H13.6837V36.236C13.6837 36.5918 13.9724 36.8805 14.3283 36.8805H15.1077V39.081V39.0834V39.086V43.3544C15.1077 43.7106 15.3964 43.9989 15.7523 43.9989H27.142C27.4979 43.9989 27.7866 43.7106 27.7866 43.3544V36.8805H28.5657C28.9216 36.8805 29.2103 36.5918 29.2103 36.236V34.0328H29.9894C30.3452 34.0328 30.6339 33.7445 30.6339 33.3883V31.1855H30.7014C31.0573 31.1855 31.346 30.8968 31.346 30.5409C31.346 30.1848 31.0573 29.8964 30.7014 29.8964H29.9911C29.9904 29.8964 29.9901 29.8964 29.9894 29.8964C29.9887 29.8964 29.9884 29.8964 29.9877 29.8964H28.3113L31.9579 24.1228C32.023 24.0197 32.0576 23.9006 32.0576 23.7787V23.0667C32.0576 22.9566 32.0294 22.8485 31.9757 22.7525L23.4336 7.44785ZM21.4473 21.2197C21.877 21.2197 22.2265 21.5692 22.2265 21.9989C22.2265 22.4285 21.877 22.778 21.4473 22.778C21.0176 22.778 20.6682 22.4285 20.6682 21.9989C20.6682 21.5692 21.0176 21.2197 21.4473 21.2197ZM27.9212 35.5911H20.8495C20.4936 35.5911 20.2049 35.8798 20.2049 36.2357C20.2049 36.5918 20.4936 36.8802 20.8495 36.8802H26.4975V38.4385H25.718C25.3622 38.4385 25.0735 38.7269 25.0735 39.083C25.0735 39.4392 25.3622 39.7276 25.718 39.7276H26.4972V42.7099H16.3968V39.7279H17.176C17.5318 39.7279 17.8205 39.4395 17.8205 39.0834C17.8205 38.7272 17.5318 38.4388 17.176 38.4388H16.3968V36.8802H18.0954C18.4516 36.8802 18.74 36.5918 18.74 36.2357C18.74 35.8798 18.4516 35.5911 18.0954 35.5911H14.9728V34.0328H27.9212V35.5911ZM29.3449 32.7438H13.5494V31.1855H27.14H27.1414H27.1427H29.3449V32.7438ZM30.7686 23.5921L29.4842 25.6254H27.8537C27.4979 25.6254 27.2092 25.9137 27.2092 26.2699C27.2092 26.6261 27.4979 26.9144 27.8537 26.9144H28.6701L26.7865 29.8964H22.0915V28.4053C22.0915 28.0494 21.8032 27.7607 21.447 27.7607C21.0912 27.7607 20.8025 28.0494 20.8025 28.4053V29.8964H16.1074L14.2242 26.9144H15.0403C15.3964 26.9144 15.6848 26.6261 15.6848 26.2699C15.6848 25.9137 15.3964 25.6254 15.0403 25.6254H13.4098L12.1258 23.5921V23.2342L20.402 8.40625H20.8025V20.034C19.977 20.3056 19.3788 21.0834 19.3788 21.9985C19.3788 23.1392 20.3066 24.0671 21.447 24.0671C22.5877 24.0671 23.5155 23.1392 23.5155 21.9985C23.5155 21.0834 22.9173 20.3053 22.0919 20.034V8.40625H22.4923L30.7686 23.2342V23.5921Z" fill="white" stroke="white" stroke-width="2" mask="url(#path-2-inside-1_1_11541)"/>
</svg>

<svg width="43" height="44" fill="none" xmlns="http://www.w3.org/2000/svg"><path d="m28.63 2.923-.175.969a20.082 20.082 0 0 1 7.885 5.354 20.034 20.034 0 0 1 5.183 13.465.144.144 0 1 1-.289 0c0-9.896-7.23-18.188-16.936-19.582l-.57-.082v1.867c0 .08-.065.145-.145.145h-4.271a.144.144 0 0 1-.145-.144V3.047l-.571.082C8.89 4.523 1.66 12.815 1.66 22.71a.144.144 0 1 1-.29 0c0-4.988 1.842-9.769 5.185-13.465a20.078 20.078 0 0 1 7.884-5.354l-.174-.968H5.965l-.113.344a1.571 1.571 0 0 1-1.49 1.08 1.57 1.57 0 0 1-1.568-1.569 1.57 1.57 0 0 1 1.568-1.568c.693 0 1.284.452 1.49 1.08l.113.344h13.202V.644c0-.08.065-.145.145-.145h4.27c.08 0 .145.065.145.145v1.99H36.93l.113-.343a1.571 1.571 0 0 1 1.49-1.08A1.57 1.57 0 0 1 40.1 2.779a1.57 1.57 0 0 1-1.569 1.568 1.571 1.571 0 0 1-1.49-1.08l-.112-.344H28.629ZM19.455 4.27v.5h3.982V.788h-3.982V4.27ZM39.811 2.78a1.28 1.28 0 1 0-2.56.002 1.28 1.28 0 0 0 2.56-.002Zm-36.728 0a1.28 1.28 0 1 0 2.56-.002 1.28 1.28 0 0 0-2.56.002Z" fill="#fff" stroke="#fff"/><mask id="a" fill="#fff"><path d="M23.434 7.448a.644.644 0 0 0-.563-.33h-2.848a.645.645 0 0 0-.562.33l-8.543 15.305a.646.646 0 0 0-.081.314v.712c0 .122.034.24.1.344l3.646 5.773h-2.39a.644.644 0 1 0 0 1.29h.067v2.202c0 .357.289.645.645.645h.779v2.203c0 .356.288.645.644.645h.78v6.473c0 .357.288.645.644.645h11.39a.644.644 0 0 0 .645-.645V36.88h.779a.645.645 0 0 0 .644-.644v-2.203h.78a.644.644 0 0 0 .644-.645v-2.202h.067a.645.645 0 0 0 0-1.29h-2.39l3.647-5.773a.644.644 0 0 0 .1-.344v-.712a.643.643 0 0 0-.082-.314L23.434 7.448ZM21.447 21.22a.78.78 0 1 1-.001 1.56.78.78 0 0 1 .001-1.56Zm6.474 14.371H20.85a.645.645 0 0 0 0 1.29h5.648v1.557h-.779a.644.644 0 1 0 0 1.29h.78v2.982H16.396v-2.982h.779a.644.644 0 1 0 0-1.29h-.78V36.88h1.7a.644.644 0 1 0 0-1.289h-3.123v-1.558H27.92v1.558Zm1.424-2.847H13.549v-1.558h15.796v1.558Zm1.424-9.152-1.285 2.033h-1.63a.644.644 0 1 0 0 1.29h.816l-1.884 2.981h-4.695v-1.49a.644.644 0 1 0-1.289 0v1.49h-4.695l-1.883-2.982h.816a.644.644 0 1 0 0-1.289h-1.63l-1.284-2.033v-.358l8.276-14.828h.4v11.628a2.072 2.072 0 0 0-1.423 1.965 2.07 2.07 0 0 0 2.068 2.068 2.07 2.07 0 0 0 2.069-2.069c0-.915-.599-1.693-1.424-1.964V8.406h.4l8.277 14.828v.358Z"/></mask><path d="M23.434 7.448a.644.644 0 0 0-.563-.33h-2.848a.645.645 0 0 0-.562.33l-8.543 15.305a.646.646 0 0 0-.081.314v.712c0 .122.034.24.1.344l3.646 5.773h-2.39a.644.644 0 1 0 0 1.29h.067v2.202c0 .357.289.645.645.645h.779v2.203c0 .356.288.645.644.645h.78v6.473c0 .357.288.645.644.645h11.39a.644.644 0 0 0 .645-.645V36.88h.779a.645.645 0 0 0 .644-.644v-2.203h.78a.644.644 0 0 0 .644-.645v-2.202h.067a.645.645 0 0 0 0-1.29h-2.39l3.647-5.773a.644.644 0 0 0 .1-.344v-.712a.643.643 0 0 0-.082-.314L23.434 7.448ZM21.447 21.22a.78.78 0 1 1-.001 1.56.78.78 0 0 1 .001-1.56Zm6.474 14.371H20.85a.645.645 0 0 0 0 1.29h5.648v1.557h-.779a.644.644 0 1 0 0 1.29h.78v2.982H16.396v-2.982h.779a.644.644 0 1 0 0-1.29h-.78V36.88h1.7a.644.644 0 1 0 0-1.289h-3.123v-1.558H27.92v1.558Zm1.424-2.847H13.549v-1.558h15.796v1.558Zm1.424-9.152-1.285 2.033h-1.63a.644.644 0 1 0 0 1.29h.816l-1.884 2.981h-4.695v-1.49a.644.644 0 1 0-1.289 0v1.49h-4.695l-1.883-2.982h.816a.644.644 0 1 0 0-1.289h-1.63l-1.284-2.033v-.358l8.276-14.828h.4v11.628a2.072 2.072 0 0 0-1.423 1.965 2.07 2.07 0 0 0 2.068 2.068 2.07 2.07 0 0 0 2.069-2.069c0-.915-.599-1.693-1.424-1.964V8.406h.4l8.277 14.828v.358Z" fill="#fff" stroke="#fff" stroke-width="2" mask="url(#a)"/></svg>
